icons/desktop/20/send-tab-to-device-right-20.svg

<svg width="20" height="20" viewBox="0 0 20 20" fill="none" xmlns="http://www.w3.org/2000/svg">
<g clip-path="url(#clip0_20535_17208)">
<path fill-rule="evenodd" clip-rule="evenodd" d="M5.50049 1.5C6.54554 1.50003 7.50038 1.58854 8.34521 1.71973C9.86956 1.95679 11.0003 3.26232 11.0005 4.81152V15.1865C11.0005 16.7225 9.87927 18.0401 8.35889 18.2783C7.26249 18.4493 6.29157 18.5 5.50049 18.5C4.45544 18.5 3.50061 18.4114 2.65576 18.2803C1.13118 18.0434 -0.000256392 16.7378 -0.000488281 15.1885V4.81348C-0.000488281 3.27739 1.12146 1.95967 2.64209 1.72168C3.73852 1.55071 4.70943 1.5 5.50049 1.5ZM4.50049 15C4.08649 15 3.75049 15.336 3.75049 15.75C3.75049 16.164 4.08649 16.5 4.50049 16.5H6.50049C6.91426 16.4997 7.25049 16.1638 7.25049 15.75C7.25049 15.3362 6.91426 15.0003 6.50049 15H4.50049ZM5.50049 3.25C4.87358 3.25 4.12267 3.28504 3.27979 3.39746L2.9126 3.4502C2.24736 3.55432 1.75049 4.13565 1.75049 4.81348V13H9.25049V4.81152C9.25026 4.13176 8.75508 3.55388 8.07666 3.44824C7.31176 3.32947 6.44705 3.25003 5.50049 3.25Z" fill="black"/>
<path d="M15.145 7.14746C15.46 6.83247 15.9985 7.056 15.9985 7.50098V9.125H19.1255C19.6083 9.12525 20.0005 9.51716 20.0005 10C20.0005 10.4828 19.6083 10.8747 19.1255 10.875H15.9985V12.498C15.9985 12.944 15.46 13.1666 15.145 12.8516L12.646 10.3525C12.4513 10.1576 12.4513 9.84143 12.646 9.64648L15.145 7.14746Z" fill="black"/>
</g>
<defs>
<clipPath id="clip0_20535_17208">
<rect width="20" height="20" fill="white"/>
</clipPath>
</defs>
</svg>

<!-- This Source Code Form is subject to the terms of the Mozilla Public
   - License, v. 2.0. If a copy of the MPL was not distributed with this
   - file, You can obtain one at http://mozilla.org/MPL/2.0/. -->
<svg xmlns="http://www.w3.org/2000/svg" width="20" height="20" fill="context-fill" fill-opacity="context-fill-opacity" viewBox="0 0 20 20">
    <path fill-rule="evenodd" d="M5.5 1.5c1.046 0 2 .089 2.845.22a3.13 3.13 0 0 1 2.656 3.092v10.375a3.13 3.13 0 0 1-2.642 3.091 18.6 18.6 0 0 1-5.703.002A3.13 3.13 0 0 1 0 15.188V4.813a3.13 3.13 0 0 1 2.642-3.091A18.6 18.6 0 0 1 5.5 1.5M4.5 15a.75.75 0 0 0 0 1.5h2a.75.75 0 0 0 0-1.5zm1-11.75c-.626 0-1.377.035-2.22.147l-.367.053A1.38 1.38 0 0 0 1.75 4.813V13h7.5V4.812a1.38 1.38 0 0 0-1.173-1.364A17 17 0 0 0 5.5 3.25" clip-rule="evenodd" />
    <path d="M15.145 7.147a.5.5 0 0 1 .854.354v1.624h3.126a.876.876 0 0 1 0 1.75H16v1.623a.5.5 0 0 1-.854.354l-2.499-2.5a.5.5 0 0 1 0-.706z" />
</svg>
